;FLAVOR:Marlin
;TIME:5512
;Filament used: 3.90242m
;Layer height: 0.2
;Generated with Cura_SteamEngine 3.3.1
M82 ;absolute extrusion mode
G21 ; set units to millimeters
G90 ; use absolute positioning
M82 ; absolute extrusion mode
M104 S205 ; set extruder temp
M140 S60 ; set bed temp
M190 S60 ; wait for bed temp
M109 S205 ; wait for extruder temp
G28 W ; home all without mesh bed level
G80 ; mesh bed leveling
G92 E0.0 ; reset extruder distance position
G1 Y-3.0 F1000.0 ; go outside print area
G1 X60.0 E9.0 F1000.0 ; intro line
G1 X100.0 E21.5 F1000.0 ; intro line
G92 E0.0 ; reset extruder distance position
G92 E0
G1 F2100 E-0.8
;LAYER_COUNT:56
;LAYER:0
M107
G0 F1200 X92.548 Y44.053 Z0.15
;TYPE:SKIRT
G1 F2100 E0
G1 F600 X92.727 Y43.844 E0.00686
G1 X92.844 Y43.727 E0.01099
G1 X93.139 Y43.489 E0.02045
G1 X93.477 Y43.318 E0.0299
G1 X93.843 Y43.221 E0.03934
G1 X94.117 Y43.2 E0.0462
G1 X135.883 Y43.2 E1.08805
G1 X136.26 Y43.24 E1.09751
G1 X136.62 Y43.358 E1.10696
G1 X136.947 Y43.548 E1.11639
G1 X137.156 Y43.727 E1.12326
G1 X137.273 Y43.844 E1.12739
G1 X137.511 Y44.139 E1.13684
G1 X137.682 Y44.477 E1.14629
G1 X137.779 Y44.843 E1.15574
G1 X137.8 Y45.117 E1.16259
G1 X137.8 Y144.883 E3.65126
G1 X137.76 Y145.26 E3.66072
G1 X137.642 Y145.62 E3.67017
G1 X137.452 Y145.947 E3.67961
G1 X137.273 Y146.156 E3.68647
G1 X137.156 Y146.273 E3.6906
G1 X136.861 Y146.511 E3.70005
G1 X136.523 Y146.682 E3.7095
G1 X136.157 Y146.779 E3.71895
G1 X135.883 Y146.8 E3.7258
G1 X94.117 Y146.8 E4.76766
G1 X93.74 Y146.76 E4.77712
G1 X93.38 Y146.642 E4.78657
G1 X93.053 Y146.452 E4.796
G1 X92.844 Y146.273 E4.80286
G1 X92.727 Y146.156 E4.80699
G1 X92.489 Y145.861 E4.81645
G1 X92.318 Y145.523 E4.8259
G1 X92.221 Y145.157 E4.83534
G1 X92.2 Y144.883 E4.8422
G1 X92.2 Y45.117 E7.33087
G1 X92.24 Y44.74 E7.34033
G1 X92.358 Y44.38 E7.34978
G1 X92.548 Y44.053 E7.35921
G0 F1200 X93.01 Y44.127
G1 F600 X93.127 Y44.01 E7.36334
G1 X93.39 Y43.804 E7.37167
G1 X93.694 Y43.665 E7.38001
G1 X94.117 Y43.6 E7.39069
G1 X135.883 Y43.6 E8.43254
G1 X136.215 Y43.64 E8.44088
G1 X136.527 Y43.757 E8.4492
G1 X136.873 Y44.01 E8.45989
G1 X136.99 Y44.127 E8.46402
G1 X137.196 Y44.39 E8.47235
G1 X137.335 Y44.694 E8.48069
G1 X137.4 Y45.117 E8.49136
G1 X137.4 Y144.883 E10.98004
G1 X137.36 Y145.215 E10.98838
G1 X137.243 Y145.527 E10.99669
G1 X136.99 Y145.873 E11.00738
G1 X136.873 Y145.99 E11.01151
G1 X136.61 Y146.196 E11.01984
G1 X136.306 Y146.335 E11.02818
G1 X135.883 Y146.4 E11.03886
G1 X94.117 Y146.4 E12.08071
G1 X93.785 Y146.36 E12.08906
G1 X93.473 Y146.243 E12.09737
G1 X93.127 Y145.99 E12.10806
G1 X93.01 Y145.873 E12.11219
G1 X92.804 Y145.61 E12.12052
G1 X92.665 Y145.306 E12.12886
G1 X92.6 Y144.883 E12.13954
G1 X92.6 Y45.117 E14.62821
G1 X92.64 Y44.785 E14.63655
G1 X92.757 Y44.473 E14.64486
G1 X93.01 Y44.127 E14.65555
G0 F1200 X93.156 Y44.581
G1 F600 X93.293 Y44.41 E14.66102
G1 X93.41 Y44.293 E14.66515
G1 X93.636 Y44.124 E14.67219
G1 X93.9 Y44.024 E14.67923
G1 X94.117 Y44 E14.68468
G1 X135.883 Y44 E15.72653
G1 X136.162 Y44.04 E15.73356
G1 X136.419 Y44.156 E15.7406
G1 X136.59 Y44.293 E15.74606
G1 X136.707 Y44.41 E15.75019
G1 X136.876 Y44.636 E15.75723
G1 X136.976 Y44.9 E15.76427
G1 X137 Y45.117 E15.76972
G1 X137 Y144.883 E18.25839
G1 X136.96 Y145.162 E18.26542
G1 X136.844 Y145.419 E18.27246
G1 X136.707 Y145.59 E18.27792
G1 X136.59 Y145.707 E18.28205
G1 X136.364 Y145.876 E18.28909
G1 X136.1 Y145.976 E18.29613
G1 X135.883 Y146 E18.30158
G1 X94.117 Y146 E19.34343
G1 X93.838 Y145.96 E19.35046
G1 X93.581 Y145.844 E19.3575
G1 X93.41 Y145.707 E19.36296
G1 X93.293 Y145.59 E19.36709
G1 X93.124 Y145.364 E19.37413
G1 X93.024 Y145.1 E19.38117
G1 X93 Y144.883 E19.38662
G1 X93 Y45.117 E21.87529
G1 X93.04 Y44.838 E21.88232
G1 X93.156 Y44.581 E21.88936
G0 F1200 X93.576 Y44.693
G1 F600 X93.693 Y44.576 E21.89348
G1 X93.872 Y44.452 E21.89892
G1 X94.117 Y44.4 E21.90516
G1 X135.883 Y44.4 E22.94702
G1 X136.098 Y44.44 E22.95248
G1 X136.307 Y44.576 E22.9587
G1 X136.424 Y44.693 E22.96282
G1 X136.548 Y44.872 E22.96826
G1 X136.6 Y45.117 E22.9745
G1 X136.6 Y144.883 E25.46318
G1 X136.56 Y145.098 E25.46863
G1 X136.424 Y145.307 E25.47485
G1 X136.307 Y145.424 E25.47898
G1 X136.128 Y145.548 E25.48441
G1 X135.883 Y145.6 E25.49066
G1 X94.117 Y145.6 E26.53252
G1 X93.902 Y145.56 E26.53797
G1 X93.693 Y145.424 E26.54419
G1 X93.576 Y145.307 E26.54832
G1 X93.452 Y145.128 E26.55375
G1 X93.4 Y144.883 E26.56
G1 X93.4 Y45.117 E29.04867
G1 X93.44 Y44.902 E29.05413
G1 X93.576 Y44.693 E29.06035
G0 F1200 X93.859 Y44.976
G1 F600 X93.976 Y44.859 E29.06447
G1 X94.117 Y44.8 E29.06829
G1 X135.883 Y44.8 E30.11014
G1 X136.024 Y44.859 E30.11396
G1 X136.141 Y44.976 E30.11808
G1 X136.2 Y45.117 E30.1219
G1 X136.2 Y144.883 E32.61057
G1 X136.141 Y145.024 E32.61438
G1 X136.024 Y145.141 E32.61851
G1 X135.883 Y145.2 E32.62232
G1 X94.117 Y145.2 E33.66418
G1 X93.976 Y145.141 E33.66799
G1 X93.859 Y145.024 E33.67212
G1 X93.8 Y144.883 E33.67593
G1 X93.8 Y45.117 E36.16461
G1 X93.859 Y44.976 E36.16842
G1 F2100 E35.36842
G0 F1200 X94.614 Y45.614
G0 X135.33 Y144.33
G0 X135.8 Y144.8
;TYPE:WALL-OUTER
G1 F2100 E36.16842
G1 F600 X94.2 Y144.8 E37.20614
G1 X94.2 Y45.2 E39.69067
G1 X135.8 Y45.2 E40.72838
G1 X135.8 Y144.8 E43.21292
G0 F1200 X135.6 Y144.8
G0 X135.4 Y144.4
;TYPE:WALL-INNER
G1 F600 X94.6 Y144.4 E44.23068
G1 X94.6 Y45.6 E46.69525
G1 X135.4 Y45.6 E47.71301
G1 X135.4 Y144.4 E50.17759
G0 F1200 X135.01 Y144.01
;TYPE:SKIN
G1 F600 X94.99 Y144.01 E51.17589
G1 X94.99 Y45.99 E53.62101
G1 X135.01 Y45.99 E54.61931
G1 X135.01 Y144.01 E57.06443
G0 F1200 X95.381 Y143.829
G1 F600 X95.169 Y143.617 E57.07191
G0 F1200 X95.169 Y143.051
G1 F600 X95.946 Y143.829 E57.09934
G1 X96.016 Y143.899
G0 F1200 X96.512 Y143.829
G1 F600 X95.169 Y142.486 E57.14672
G1 X95.099 Y142.416
G0 F1200 X95.169 Y141.92
G1 F600 X97.078 Y143.829 E57.21406
G1 X97.148 Y143.899
G0 F1200 X97.643 Y143.829
G1 F600 X95.169 Y141.354 E57.30136
G1 X95.099 Y141.284
G0 F1200 X95.169 Y140.789
G1 F600 X98.209 Y143.829 E57.4086
G1 X98.279 Y143.899
G0 F1200 X98.775 Y143.829
G1 F600 X95.169 Y140.223 E57.53581
G1 X95.099 Y140.153
G0 F1200 X95.169 Y139.657
G1 F600 X99.34 Y143.829 E57.68297
G1 X99.41 Y143.899
G0 F1200 X99.906 Y143.829
G1 F600 X95.169 Y139.092 E57.85008
G1 X95.099 Y139.022
G0 F1200 X95.169 Y138.526
G1 F600 X100.472 Y143.829 E58.03716
G1 X100.542 Y143.899
G0 F1200 X101.037 Y143.829
G1 F600 X95.169 Y137.96 E58.24419
G1 X95.099 Y137.89
G0 F1200 X95.169 Y137.395
G1 F600 X101.603 Y143.829 E58.47117
G1 X101.673 Y143.899
G0 F1200 X102.169 Y143.829
G1 F600 X95.169 Y136.829 E58.71811
G1 X95.099 Y136.759
G0 F1200 X95.169 Y136.263
G1 F600 X102.734 Y143.829 E58.985
G1 X102.804 Y143.899
G0 F1200 X103.3 Y143.829
G1 F600 X95.169 Y135.697 E59.27186
G1 X95.099 Y135.627
G0 F1200 X95.169 Y135.132
G1 F600 X103.866 Y143.829 E59.57867
G1 X103.936 Y143.899
G0 F1200 X104.432 Y143.829
G1 F600 X95.169 Y134.566 E59.90545
G1 X95.099 Y134.496
G0 F1200 X95.169 Y134
G1 F600 X104.997 Y143.829 E60.25218
G1 X105.067 Y143.899
G0 F1200 X105.563 Y143.829
G1 F600 X95.169 Y133.435 E60.61885
G1 X95.099 Y133.365
G0 F1200 X95.169 Y132.869
G1 F600 X106.129 Y143.829 E61.0055
G1 X106.199 Y143.899
G0 F1200 X106.694 Y143.829
G1 F600 X95.169 Y132.303 E61.41209
G1 X95.099 Y132.233
G0 F1200 X95.169 Y131.738
G1 F600 X107.26 Y143.829 E61.83863
G1 X107.33 Y143.899
G0 F1200 X107.826 Y143.829
G1 F600 X95.169 Y131.172 E62.28514
G1 X95.099 Y131.102
G0 F1200 X95.169 Y130.606
G1 F600 X108.391 Y143.829 E62.7516
G1 X108.461 Y143.899
G0 F1200 X108.957 Y143.829
G1 F600 X95.169 Y130.041 E63.23801
G1 X95.099 Y129.971
G0 F1200 X95.169 Y129.475
G1 F600 X109.523 Y143.829 E63.74439
G1 X109.593 Y143.899
G0 F1200 X110.088 Y143.829
G1 F600 X95.169 Y128.909 E64.27071
G1 X95.099 Y128.839
G0 F1200 X95.169 Y128.344
G1 F600 X110.654 Y143.829 E64.81699
G1 X110.724 Y143.899
G0 F1200 X111.22 Y143.829
G1 F600 X95.169 Y127.778 E65.38323
G1 X95.099 Y127.708
G0 F1200 X95.169 Y127.212
G1 F600 X111.785 Y143.829 E65.96942
G1 X111.855 Y143.899
G0 F1200 X112.351 Y143.829
G1 F600 X95.169 Y126.647 E66.57556
G1 X95.099 Y126.577
G0 F1200 X95.169 Y126.081
G1 F600 X112.917 Y143.829 E67.20167
G1 X112.987 Y143.899
G0 F1200 X113.483 Y143.829
G1 F600 X95.169 Y125.515 E67.84775
G1 X95.099 Y125.445
G0 F1200 X95.169 Y124.949
G1 F600 X114.048 Y143.829 E68.51377
G1 X114.118 Y143.899
G0 F1200 X114.614 Y143.829
G1 F600 X95.169 Y124.384 E69.19975
G1 X95.099 Y124.314
G0 F1200 X95.169 Y123.818
G1 F600 X115.18 Y143.829 E69.90569
G1 X115.25 Y143.899
G0 F1200 X115.745 Y143.829
G1 F600 X95.169 Y123.252 E70.63158
G1 X95.099 Y123.182
G0 F1200 X95.169 Y122.687
G1 F600 X116.311 Y143.829 E71.37742
G1 X116.381 Y143.899
G0 F1200 X116.877 Y143.829
G1 F600 X95.169 Y122.121 E72.14323
G1 X95.099 Y122.051
G0 F1200 X95.169 Y121.555
G1 F600 X117.442 Y143.829 E72.92899
G1 X117.512 Y143.899
G0 F1200 X118.008 Y143.829
G1 F600 X95.169 Y120.99 E73.7347
G1 X95.099 Y120.92
G0 F1200 X95.169 Y120.424
G1 F600 X118.574 Y143.829 E74.56037
G1 X118.644 Y143.899
G0 F1200 X119.139 Y143.829
G1 F600 X95.169 Y119.858 E75.406
G1 X95.099 Y119.788
G0 F1200 X95.169 Y119.293
G1 F600 X119.705 Y143.829 E76.27157
G1 X119.775 Y143.899
G0 F1200 X120.271 Y143.829
G1 F600 X95.169 Y118.727 E77.15711
G1 X95.099 Y118.657
G0 F1200 X95.169 Y118.161
G1 F600 X120.836 Y143.829 E78.0626
G1 X120.906 Y143.899
G0 F1200 X121.402 Y143.829
G1 F600 X95.169 Y117.596 E78.98804
G1 X95.099 Y117.526
G0 F1200 X95.169 Y117.03
G1 F600 X121.968 Y143.829 E79.93345
G1 X122.038 Y143.899
G0 F1200 X122.533 Y143.829
G1 F600 X95.169 Y116.464 E80.8988
G1 X95.099 Y116.394
G0 F1200 X95.169 Y115.898
G1 F600 X123.099 Y143.829 E81.88413
G1 X123.169 Y143.899
G0 F1200 X123.665 Y143.829
G1 F600 X95.169 Y115.333 E82.8894
G1 X95.099 Y115.263
G0 F1200 X95.169 Y114.767
G1 F600 X124.231 Y143.829 E83.91464
G1 X124.301 Y143.899
G0 F1200 X124.796 Y143.829
G1 F600 X95.169 Y114.201 E84.95983
G1 X95.099 Y114.131
G0 F1200 X95.169 Y113.636
G1 F600 X125.362 Y143.829 E86.02497
G1 X125.432 Y143.899
G0 F1200 X125.928 Y143.829
G1 F600 X95.169 Y113.07 E87.11008
G1 X95.099 Y113
G0 F1200 X95.169 Y112.504
G1 F600 X126.493 Y143.829 E88.21514
G1 X126.563 Y143.899
G0 F1200 X127.059 Y143.829
G1 F600 X95.169 Y111.939 E89.34014
G1 X95.099 Y111.869
G0 F1200 X95.169 Y111.373
G1 F600 X127.625 Y143.829 E90.48511
G1 X127.695 Y143.899
G0 F1200 X128.19 Y143.829
G1 F600 X95.169 Y110.807 E91.65004
G1 X95.099 Y110.737
G0 F1200 X95.169 Y110.242
G1 F600 X128.756 Y143.829 E92.83491
G1 X128.826 Y143.899
G0 F1200 X129.322 Y143.829
G1 F600 X95.169 Y109.676 E94.03975
G1 X95.099 Y109.606
G0 F1200 X95.169 Y109.11
G1 F600 X129.887 Y143.829 E95.26454
G1 X129.957 Y143.899
G0 F1200 X130.453 Y143.829
G1 F600 X95.169 Y108.545 E96.50928
G1 X95.099 Y108.475
G0 F1200 X95.169 Y107.979
G1 F600 X131.019 Y143.829 E97.77398
G1 X131.089 Y143.899
G0 F1200 X131.584 Y143.829
G1 F600 X95.169 Y107.413 E99.05864
G1 X95.099 Y107.343
G0 F1200 X95.169 Y106.848
G1 F600 X132.15 Y143.829 E100.36324
G1 X132.22 Y143.899
G0 F1200 X132.716 Y143.829
G1 F600 X95.169 Y106.282 E101.68781
G1 X95.099 Y106.212
G0 F1200 X95.169 Y105.716
G1 F600 X133.281 Y143.829 E103.03233
G1 X133.351 Y143.899
G0 F1200 X133.847 Y143.829
G1 F600 X95.169 Y105.15 E104.39682
G1 X95.099 Y105.08
G0 F1200 X95.169 Y104.585
G1 F600 X134.413 Y143.829 E105.78126
G1 X134.483 Y143.899
G0 F1200 X134.829 Y143.679
G1 F600 X95.169 Y104.019 E107.18037
G1 X95.099 Y103.949
G0 F1200 X95.169 Y103.453
G1 F600 X134.829 Y143.114 E108.57951
G1 X134.899 Y143.184
G0 F1200 X134.829 Y142.548
G1 F600 X95.169 Y102.888 E109.97862
G1 X95.099 Y102.818
G0 F1200 X95.169 Y102.322
G1 F600 X134.829 Y141.982 E111.37773
G1 X134.899 Y142.052
G0 F1200 X134.829 Y141.417
G1 F600 X95.169 Y101.756 E112.77686
G1 X95.099 Y101.686
G0 F1200 X95.169 Y101.191
G1 F600 X134.829 Y140.851 E114.17598
G1 X134.899 Y140.921
G0 F1200 X134.829 Y140.285
G1 F600 X95.169 Y100.625 E115.57509
G1 X95.099 Y100.555
G0 F1200 X95.169 Y100.059
G1 F600 X134.829 Y139.72 E116.97422
G1 X134.899 Y139.79
G0 F1200 X134.829 Y139.154
G1 F600 X95.169 Y99.494 E118.37334
G1 X95.099 Y99.424
G0 F1200 X95.169 Y98.928
G1 F600 X134.829 Y138.588 E119.77245
G1 X134.899 Y138.658
G0 F1200 X134.829 Y138.022
G1 F600 X95.169 Y98.362 E121.17156
G1 X95.099 Y98.292
G0 F1200 X95.169 Y97.797
G1 F600 X134.829 Y137.457 E122.57068
G1 X134.899 Y137.527
G0 F1200 X134.829 Y136.891
G1 F600 X95.169 Y97.231 E123.96979
G1 X95.099 Y97.161
G0 F1200 X95.169 Y96.665
G1 F600 X134.829 Y136.325 E125.3689
G1 X134.899 Y136.395
G0 F1200 X134.829 Y135.76
G1 F600 X95.169 Y96.1 E126.76802
G1 X95.099 Y96.03
G0 F1200 X95.169 Y95.534
G1 F600 X134.829 Y135.194 E128.16713
G1 X134.899 Y135.264
G0 F1200 X134.829 Y134.628
G1 F600 X95.169 Y94.968 E129.56624
G1 X95.099 Y94.898
G0 F1200 X95.169 Y94.402
G1 F600 X134.829 Y134.063 E130.96538
G1 X134.899 Y134.133
G0 F1200 X134.829 Y133.497
G1 F600 X95.169 Y93.837 E132.36449
G1 X95.099 Y93.767
G0 F1200 X95.169 Y93.271
G1 F600 X134.829 Y132.931 E133.7636
G1 X134.899 Y133.001
G0 F1200 X134.829 Y132.366
G1 F600 X95.169 Y92.705 E135.16273
G1 X95.099 Y92.635
G0 F1200 X95.169 Y92.14
G1 F600 X134.829 Y131.8 E136.56185
G1 X134.899 Y131.87
G0 F1200 X134.829 Y131.234
G1 F600 X95.169 Y91.574 E137.96096
G1 X95.099 Y91.504
G0 F1200 X95.169 Y91.008
G1 F600 X134.829 Y130.669 E139.36009
G1 X134.899 Y130.739
G0 F1200 X134.829 Y130.103
G1 F600 X95.169 Y90.443 E140.75921
G1 X95.099 Y90.373
G0 F1200 X95.169 Y89.877
G1 F600 X134.829 Y129.537 E142.15832
G1 X134.899 Y129.607
G0 F1200 X134.829 Y128.971
G1 F600 X95.169 Y89.311 E143.55743
G1 X95.099 Y89.241
G0 F1200 X95.169 Y88.746
G1 F600 X134.829 Y128.406 E144.95655
G1 X134.899 Y128.476
G0 F1200 X134.829 Y127.84
G1 F600 X95.169 Y88.18 E146.35566
G1 X95.099 Y88.11
G0 F1200 X95.169 Y87.614
G1 F600 X134.829 Y127.274 E147.75477
G1 X134.899 Y127.344
G0 F1200 X134.829 Y126.709
G1 F600 X95.169 Y87.049 E149.15389
G1 X95.099 Y86.979
G0 F1200 X95.169 Y86.483
G1 F600 X134.829 Y126.143 E150.553
G1 X134.899 Y126.213
G0 F1200 X134.829 Y125.577
G1 F600 X95.169 Y85.917 E151.95212
G1 X95.099 Y85.847
G0 F1200 X95.169 Y85.351
G1 F600 X134.829 Y125.012 E153.35125
G1 X134.899 Y125.082
G0 F1200 X134.829 Y124.446
G1 F600 X95.169 Y84.786 E154.75036
G1 X95.099 Y84.716
G0 F1200 X95.169 Y84.22
G1 F600 X134.829 Y123.88 E156.14947
G1 X134.899 Y123.95
G0 F1200 X134.829 Y123.315
G1 F600 X95.169 Y83.654 E157.5486
G1 X95.099 Y83.584
G0 F1200 X95.169 Y83.089
G1 F600 X134.829 Y122.749 E158.94772
G1 X134.899 Y122.819
G0 F1200 X134.829 Y122.183
G1 F600 X95.169 Y82.523 E160.34683
G1 X95.099 Y82.453
G0 F1200 X95.169 Y81.957
G1 F600 X134.829 Y121.618 E161.74596
G1 X134.899 Y121.688
G0 F1200 X134.829 Y121.052
G1 F600 X95.169 Y81.392 E163.14508
G1 X95.099 Y81.322
G0 F1200 X95.169 Y80.826
G1 F600 X134.829 Y120.486 E164.54419
G1 X134.899 Y120.556
G0 F1200 X134.829 Y119.921
G1 F600 X95.169 Y80.26 E165.94332
G1 X95.099 Y80.19
G0 F1200 X95.169 Y79.695
G1 F600 X134.829 Y119.355 E167.34244
G1 X134.899 Y119.425
G0 F1200 X134.829 Y118.789
G1 F600 X95.169 Y79.129 E168.74155
G1 X95.099 Y79.059
G0 F1200 X95.169 Y78.563
G1 F600 X134.829 Y118.223 E170.14066
G1 X134.899 Y118.293
G0 F1200 X134.829 Y117.658
G1 F600 X95.169 Y77.998 E171.53978
G1 X95.099 Y77.928
G0 F1200 X95.169 Y77.432
G1 F600 X134.829 Y117.092 E172.93889
G1 X134.899 Y117.162
G0 F1200 X134.829 Y116.526
G1 F600 X95.169 Y76.866 E174.338
G1 X95.099 Y76.796
G0 F1200 X95.169 Y76.301
G1 F600 X134.829 Y115.961 E175.73712
G1 X134.899 Y116.031
G0 F1200 X134.829 Y115.395
G1 F600 X95.169 Y75.735 E177.13623
G1 X95.099 Y75.665
G0 F1200 X95.169 Y75.169
G1 F600 X134.829 Y114.829 E178.53534
G1 X134.899 Y114.899
G0 F1200 X134.829 Y114.264
G1 F600 X95.169 Y74.603 E179.93448
G1 X95.099 Y74.533
G0 F1200 X95.169 Y74.038
G1 F600 X134.829 Y113.698 E181.33359
G1 X134.899 Y113.768
G0 F1200 X134.829 Y113.132
G1 F600 X95.169 Y73.472 E182.7327
G1 X95.099 Y73.402
G0 F1200 X95.169 Y72.906
G1 F600 X134.829 Y112.567 E184.13183
G1 X134.899 Y112.637
G0 F1200 X134.829 Y112.001
G1 F600 X95.169 Y72.341 E185.53095
G1 X95.099 Y72.271
G0 F1200 X95.169 Y71.775
G1 F600 X134.829 Y111.435 E186.93006
G1 X134.899 Y111.505
G0 F1200 X134.829 Y110.87
G1 F600 X95.169 Y71.209 E188.32919
